!!!COM: Anonymous
!!!CDT: fl. XVI c. 1st half [?]
!!!ODT: XVI c. [?]
!!!OTL: Krzyżu święty i chwalebny
!!!TXO: Polish
!!!voices: 4
!!!pag:
!!!EFL:
!!!YEM: Creative Commons CC/BY/NC/SA 4.0
!!!ENC: Marcin Konik
!!!END: 2015-05-01
!!!EED: Marcin Konik
!!!EEV:
!!!ONB: Encoded in vim by Marcin Konik
!!!CharacterEncoding: utf-8
!!!RDF**kern: l=long note in original notation
!!!RDF**kern: i=editorial accidental
!!!RDF**kern: > = above
!!!RDF**kern < = below
!!muse2ps: z14jc180F
!!title: @{CDT}, @{OTL}, ed. @{ENC}
**kern	**kern	**kern	**kern
*part4	*part3	*part2	*part1
*staff4	*staff3	*staff2	*staff1
*clefF4	*clefGv2	*clefGv2	*clefG2
*k[]	*k[]	*k[]	*k[]
*M2/2	*M2/2	*M2/2	*M2/2
=1-	=1-	=1-	=1-
1D	1D	1A	1d
=2	=2	=2	=2
2C	2E	2G	2g
2C	2G	2c	2e
=3	=3	=3	=3
1D	2A	4A	2f
.	.	4.A	.
.	2A	.	2f
.	.	8GL	.
.	.	8A	.
.	.	8BJ	.
=4	=4	=4	=4
1C	1G	1c	1e
=5	=5	=5	=5
1F	1A	2.c	1a
.	.	4d	.
=6	=6	=6	=6
2E	2B	2e	2g
2AA	2c	2e	2a
=7	=7	=7	=7
2E	2B	2e	2b
2F	2A	2d	2dd
=8	=8	=8	=8
1E	1G#	1e	1b
=9	=9	=9	=9
2.F	2c	2c	2a
.	2c	4A	2a
4E	.	[4c	.
=10	=10	=10	=10
2D	2d	4c]	2f
.	.	4B	.
2C	2e	2c	2g
=11	=11	=11	=11
2F	2A	2c	2a
4G	2G	4B	2b
4E	.	[4e	.
=12	=12	=12	=12
4A	2c	4e]	4cc
4F	.	8cL	2a
.	.	8dJ	.
2E	2B	2e	.
.	.	.	4g#
=13	=13	=13	=13
1AA	1A	1c	1a
=14	=14	=14	=14
4.A	2A	2e	2cc
8G	.	.	.
4F	2A	2c	2cc
4E	.	.	.
=15	=15	=15	=15
2F	2c	4f	2a
.	.	2c	.
2G	2G	.	2d
.	.	4B	.
=16	=16	=16	=16
1C	1G	1c	1e
=17	=17	=17	=17
2D	2A	2A	2f
2D	2F	4A	2a
.	.	4d	.
=18	=18	=18	=18
2E	2E	4d	2g
.	.	4c	.
2F	2D	2d	2f
=19	=19	=19	=19
2.C	2E	2G	2.e
.	2E	2G	.
8BBL	.	.	8dL
8AAJ	.	.	8cJ
=20	=20	=20	=20
2D	2F	2A	2d
[2AA	[2E	[2A	[2c
=21	=21	=21	=21
2AA]	2E]	2A]	2c]
4.D	2D	2A	2f
8C	.	.	.
=22	=22	=22	=22
2BB	2D	2d	2f
2AA	2A	2c	2e
=23	=23	=23	=23
2D	2A	2A	2f
2E	2G	2B	2g
=24	=24	=24	=24
2C	2E	2c	2g
2D	2D	2A	2f
=25	=25	=25	=25
2C	2E	2G	2e
4D	2F	4A	4d
4BB	.	8FL	[4d
.	.	8GJ	.
=26	=26	=26	=26
2AA	2E	2A	4d]
.	.	.	4c#
2D	2D	2F	2d
=27	=27	=27	=27
2D	2A	2d	2f
2D	2A	2d	2f
=28	=28	=28	=28
4.C	2c	2.e	2.g
8D	.	.	.
4E	2G	.	.
4D	.	8dL	4a
.	.	8cJ	.
=29	=29	=29	=29
1E	1G	1B	1b
=30	=30	=30	=30
2.F	2A	4A	2cc
.	.	4d	.
.	2F	4f	2a
8EL	.	4d	.
8DJ	.	.	.
=31	=31	=31	=31
2C	2E	4d	2g
.	.	4c	.
2F	2D	2d	2f
=32	=32	=32	=32
2G	2E	2B	2e
4E	2E	4B	2g
4C	.	4e	.
=33	=33	=33	=33
2D	2F	2A	2a
2E	2E	2B	2g
=34	=34	=34	=34
1C	1E	1c	1g
=35	=35	=35	=35
2.D	2D	2A	2f
.	2D	2d	2f
8CL	.	.	.
8BBJ	.	.	.
=36	=36	=36	=36
2AA	2A	2c	2e
2D	2A	2d	2f
=37	=37	=37	=37
2GG	2G	8BL	2d
.	.	8AJ	.
.	.	2d	.
2C	2E	.	2g
.	.	4c	.
=38	=38	=38	=38
2BB	2D	2d	2f
4AA	2E	4c	2e
4C	.	4G	.
=39	=39	=39	=39
4D	2F	4A	4d
4BB	.	8FL	2d
.	.	8GJ	.
2AA	2E	2A	.
.	.	.	4c#
=40	=40	=40	=40
1D	1D	1A	1d
==	==	==	==
*-	*-	*-	*-
